public/images/icons/network.svg

<svg width="22" height="22" viewBox="0 0 22 22" fill="none" xmlns="http://www.w3.org/2000/svg">
<path d="M4 15L9 12M13 10L18 7M11 4V9M11 13V18M4 7L9 10M13 12L18 15M19.5 8V13.5M12.5 19.5L18 16.5M3.5 16.5L9.5 19.5M2.5 14V8M3.5 5.5L9.5 2.5M18.5 5.5L12.5 2.5" stroke="#000000" stroke-width="1.5" stroke-linecap="round" stroke-linejoin="round"/>
<path d="M11 4C11.8284 4 12.5 3.32843 12.5 2.5C12.5 1.67157 11.8284 1 11 1C10.1716 1 9.5 1.67157 9.5 2.5C9.5 3.32843 10.1716 4 11 4Z" stroke="#000000" stroke-width="1.5" stroke-linecap="round" stroke-linejoin="round"/>
<path d="M11 21C11.8284 21 12.5 20.3284 12.5 19.5C12.5 18.6716 11.8284 18 11 18C10.1716 18 9.5 18.6716 9.5 19.5C9.5 20.3284 10.1716 21 11 21Z" stroke="#000000" stroke-width="1.5" stroke-linecap="round" stroke-linejoin="round"/>
<path d="M2.5 8C3.32843 8 4 7.32843 4 6.5C4 5.67157 3.32843 5 2.5 5C1.67157 5 1 5.67157 1 6.5C1 7.32843 1.67157 8 2.5 8Z" stroke="#000000" stroke-width="1.5" stroke-linecap="round" stroke-linejoin="round"/>
<path d="M19.5 8C20.3284 8 21 7.32843 21 6.5C21 5.67157 20.3284 5 19.5 5C18.6716 5 18 5.67157 18 6.5C18 7.32843 18.6716 8 19.5 8Z" stroke="#000000" stroke-width="1.5" stroke-linecap="round" stroke-linejoin="round"/>
<path d="M19.5 17C20.3284 17 21 16.3284 21 15.5C21 14.6716 20.3284 14 19.5 14C18.6716 14 18 14.6716 18 15.5C18 16.3284 18.6716 17 19.5 17Z" stroke="#000000" stroke-width="1.5" stroke-linecap="round" stroke-linejoin="round"/>
<path d="M2.5 17C3.32843 17 4 16.3284 4 15.5C4 14.6716 3.32843 14 2.5 14C1.67157 14 1 14.6716 1 15.5C1 16.3284 1.67157 17 2.5 17Z" stroke="#000000" stroke-width="1.5" stroke-linecap="round" stroke-linejoin="round"/>
<path d="M11 8.75L13 9.875V12.125L11 13.25L9 12.125V9.875L11 8.75Z" stroke="#000000" stroke-width="1.5" stroke-linecap="round" stroke-linejoin="round"/>
</svg>

<svg xmlns="http://www.w3.org/2000/svg" width="22" height="22" fill="none"><path stroke="#000" stroke-linecap="round" stroke-linejoin="round" stroke-width="1.5" d="m4 15 5-3m4-2 5-3m-7-3v5m0 4v5M4 7l5 3m4 2 5 3m1.5-7v5.5m-7 6 5.5-3m-14.5 0 6 3m-7-5.5V8m1-2.5 6-3m9 3-6-3M11 4a1.5 1.5 0 1 0 0-3 1.5 1.5 0 0 0 0 3ZM11 21a1.5 1.5 0 1 0 0-3 1.5 1.5 0 0 0 0 3ZM2.5 8a1.5 1.5 0 1 0 0-3 1.5 1.5 0 0 0 0 3ZM19.5 8a1.5 1.5 0 1 0 0-3 1.5 1.5 0 0 0 0 3ZM19.5 17a1.5 1.5 0 1 0 0-3 1.5 1.5 0 0 0 0 3ZM2.5 17a1.5 1.5 0 1 0 0-3 1.5 1.5 0 0 0 0 3ZM11 8.75l2 1.125v2.25l-2 1.125-2-1.125v-2.25l2-1.125Z"/></svg>
